X:0
T:Fy gar Rub her o'er with Straw
G:song
S:NLS MS.3327, Inglis.12
M:4/4
L:1/8
Q:1/4=120
K:AMin
c3 B A2e2|decd B2AG|c3  d e^fg2|edcB A4:|
g2e2 e2dc|Bcde B2AG|g>agf e2 g2|ageg a3b|
g3 f e2dc|Bcde B2AG|c3  d e^fg2|edcB A4:|

There are other tunes like this where the sixth rather than the seventh is
the note that gets sharpened on rising phrases. Perhaps this was a local
development of the art-music minor scale in a more idiomatically Scottish
direction.  But the classical minor scale was thoroughly incorporated into
traditional music long ago and is now an integral part of it.


8. Relative Mode Shifts
== ====================

A common trick in classical music is to shift between major and minor keys
using the same number of sharps or flats, like between C major and A minor;
this involves shifting the tonal centre.  There are a few tunes in a
traditional style that do this:

